X:1
T:Title
%%score { 1 | 2 }
L:1/8
M:3/4
K:G
V:1 treble nm="Grand Piano"
V:2 bass 
V:1
 z2 z2[Q:1/4=100] D2 | G3 B AG | F4 [EG]2 | [FA]3 [Ac] [GB][FA] | G4 B2 | d3 B AG | E4 [DG]2 | %7
 [DA]3 [EG] [DF][^CE] |[M:2/4] D4 |[M:1/4] B2 |[M:3/4] c3 B AG | [GB]2 [FA]2 z2 | %12
 [Fd]3 [Ac] [GB][FA] | [Ac]2 [GB]2 [DG]2 | [EA]3 [G,EG] [G,DF][G,CE] | [G,CE]2 [G,B,D]2 [G,DG]2 | %16
 [B,DG]3 [B,D] [CDA][CDF] |[M:2/4] [B,DG]4 |] %18
V:2
 z2 z2 [G,B,]2 | [G,B,D]3 [G,D] [F,CD][G,B,D] | [D,A,D]4 [D,A,]2 | [D,D]3 [D,D] [D,D][D,C] | %4
 [G,B,]4[K:treble] [G,DG]2 | [B,DG]3[K:bass] [G,D] [D,F,C][E,G,B,] | [C,G,C]4 [B,,G,]2 | %7
 [A,,F,]3 [A,,A,] [A,,A,][A,,G,] |[M:2/4] [D,F,]4 |[M:1/4] [G,D]2 | %10
[M:3/4] [G,E]3 [G,D] [F,CD][G,B,D] | [D,D]2 [D,D]2 z2 | [D,A,]3 [D,D] [D,D][D,D] | %13
 [G,D]2 [G,D]2 [B,,G,]2 | [C,G,]3 C, C,C, | G,,2 G,,2 B,,2 | D,3 D, D,D, |[M:2/4] G,,4 |] %18

